svg/Pictogram/pictograms-aem-0016-belt_drive.svg

<svg viewBox="0 0 304.01 304.01"><g transform="matrix(1.35328 0 0 1.35328-53.21-52.19)" fill-rule="evenodd"><path d="m239.08 128.12l-38.14 87.39-3.437-15.898-.289-.574 2.254-6.59 21.574-49.44c-5.469 2.454-11.523 3.829-17.895 3.829-18.14 0-33.75-11.06-40.441-26.79l-16.519 50.19h-11.137l25.01-75.8c3.961-20.17 21.773-35.441 43.09-35.441 24.22 0 43.918 19.703 43.918 43.918 0 9.375-2.961 18.07-7.984 25.21m-35.934 13.425c21.301 0 38.629-17.328 38.629-38.628 0-21.301-17.328-38.633-38.629-38.633-21.3 0-38.632 17.332-38.632 38.633 0 21.3 17.332 38.628 38.632 38.628"/><path d="m115.78 167.06c11.629 0 21.05-9.426 21.05-21.05 0-11.629-9.426-21.05-21.05-21.05-11.625 0-21.05 9.425-21.05 21.05 0 11.625 9.426 21.05 21.05 21.05"/><path d="m102.46 171.86c-4.969 0-7.391 2.91-9.402 5.777l-45.44 64.738h55.629l36.434-48.968h54.843l8.231-21.547h-100.29"/><path d="m255.96 208.33l-29.437-26.11-11.793 12.06 7.91 7.351-2.196 19.34c0 0-.027 1.781 1.512 2.406 1.539.621 3.035-.785 3.035-.785l1.078-9.402c0 0 .235-1.313.723-1.164.484.148.551.969.551.969l-.195 14.39c0 0 .23 2.199 2.695 2.504 2.461.305 3.082-2.496 3.082-2.496l.098-11.449c0 0 .242-.598.492-.598.246 0 .312.574.312.574l2.219 14.95c0 0 .641 2.101 2.758 1.418 2.117-.68 1.691-3.192 1.691-3.192l-1.203-10.715c0 0-.668-1.961.293-2.449.961-.484 1.176 1.664 1.176 1.664l3.23 9.91c0 0 1.149 2.641 3.332 1.746 2.184-.894 1.321-3.839 1.321-3.839 0 0-4.41-14.15-5.141-15.551-.73-1.41-1.469-4.703-1.469-4.703.34-2.371 3.328 1.273 3.328 1.273 0 0 4.715 3.813 6.075 4.899.98.781 3.718.05 3.718.05 2.243-1.117.809-3.05.809-3.05"/><path d="m146.24 170.22h9.637c2.687-.726 5.508-1.125 8.426-1.125 2.914 0 5.726.402 8.414 1.125h14.883c-6.5-4.855-14.555-7.75-23.297-7.75-6.547 0-12.711 1.621-18.13 4.473l-1.211 3.304 1.246.028.031-.055m5 1.633h-2.48l.5.949c.644-.34 1.308-.652 1.98-.949m43.875 19.715l3.422-8.774c-2.281-4.175-5.316-7.871-8.902-10.941h-12.282c8.399 3.711 14.93 10.883 17.762 19.715m6.117-2.61l-4.59 11.762c.004.246.02.492.02.738 0 17.875-14.488 32.368-32.363 32.368-14.969 0-27.559-10.164-31.26-23.961l-4.809 6.425c5.836 14.18 19.782 24.17 36.07 24.17 21.535 0 38.996-17.457 38.996-38.992 0-4.379-.735-8.582-2.063-12.508m-69.3 12.5c0-10.414 4.925-19.671 12.566-25.593h-9.598c-5.972 6.851-9.593 15.8-9.593 25.601 0 3.321.418 6.543 1.199 9.621l5.515-7.367c-.054-.75-.089-1.5-.089-2.262"/></g></svg>

<?xml version="1.0" encoding="ISO-8859-1" standalone="yes"?>
<svg height="304.014" width="304.015">
  <metadata>
    <rdf:RDF xmlns:cc="http://web.resource.org/cc/" xmlns:dc="http://purl.org/dc/elements/1.1/" xmlns:rdf="http://www.w3.org/1999/02/22-rdf-syntax-ns#">
      <cc:Work rdf:about="">
        <dc:title></dc:title>
        <dc:description></dc:description>
        <dc:subject>
          <rdf:Bag>
            <rdf:li></rdf:li>
          </rdf:Bag>
        </dc:subject>
        <dc:publisher>
          <cc:Agent rdf:about="http://www.unece.org/trans/danger/publi/ghs/pictograms.html">
            <dc:title>Source: UNECE GHS of Classification and Labeling of Chemicals, Source: AEM Pictorial Database, Source: AEM Pictorial Database, Source: AEM Pictorial Database, Source: AEM Pictorial Database</dc:title>
          </cc:Agent>
        </dc:publisher>
        <dc:creator>
          <cc:Agent>
            <dc:title></dc:title>
          </cc:Agent>
        </dc:creator>
        <dc:rights>
          <cc:Agent>
            <dc:title></dc:title>
          </cc:Agent>
        </dc:rights>
        <dc:date></dc:date>
        <dc:format>image/svg+xml</dc:format>
        <dc:type rdf:resource="http://purl.org/dc/dcmitype/StillImage"/>
        <cc:license rdf:resource="http://en.wikipedia.org/wiki/Public_domain"/>
        <dc:language>en</dc:language>
      </cc:Work>
    </rdf:RDF>
  </metadata>
  <defs><marker id="ArrowEnd" markerHeight="3" markerUnits="strokeWidth" markerWidth="4" orient="auto" refX="0" refY="5" viewBox="0 0 10 10"><path d="M 0 0 L 10 5 L 0 10 z"/></marker><marker id="ArrowStart" markerHeight="3" markerUnits="strokeWidth" markerWidth="4" orient="auto" refX="10" refY="5" viewBox="0 0 10 10"><path d="M 10 0 L 0 5 L 10 10 z"/></marker> </defs>
  <g id="g2958" transform="matrix(1.3532768,0,0,1.3532781,-53.207834,-52.192858)">
    <path d="M 239.081 128.116L 200.94 215.502L 197.503 199.604L 197.214 199.03L 199.468 192.44L 221.042 143.002C 215.573 145.456 209.519 146.831 203.147 146.831C 185.003 146.831 169.397 135.772 162.706 120.041L 146.187 170.229L 135.05 170.229L 160.058 94.4324C 164.019 74.2604 181.831 58.9914 203.147 58.9914C 227.362 58.9914 247.065 78.6944 247.065 102.909C 247.065 112.284 244.104 120.975 239.081 128.116zM 203.147 141.541C 224.448 141.541 241.776 124.213 241.776 102.913C 241.776 81.6124 224.448 64.2804 203.147 64.2804C 181.847 64.2804 164.515 81.6124 164.515 102.913C 164.515 124.213 181.847 141.541 203.147 141.541" style="stroke:none; fill-rule:evenodd; fill:#000000"/>
    <path d="M 115.784 167.057C 127.413 167.057 136.839 157.631 136.839 146.006C 136.839 134.377 127.413 124.952 115.784 124.952C 104.159 124.952 94.7334 134.377 94.7334 146.006C 94.7334 157.631 104.159 167.057 115.784 167.057" style="stroke:none; fill-rule:evenodd; fill:#000000"/>
    <path d="M 102.464 171.862C 97.4954 171.862 95.0734 174.772 93.0624 177.639L 47.6204 242.377L 103.249 242.377L 139.683 193.409L 194.526 193.409L 202.757 171.862L 102.468 171.862" style="stroke:none; fill-rule:evenodd; fill:#000000"/>
    <path d="M 255.956 208.331L 226.519 182.225L 214.726 194.28L 222.636 201.631L 220.44 220.971C 220.44 220.971 220.413 222.752 221.952 223.377C 223.491 223.998 224.987 222.592 224.987 222.592L 226.065 213.19C 226.065 213.19 226.3 211.877 226.788 212.026C 227.272 212.174 227.339 212.995 227.339 212.995L 227.144 227.385C 227.144 227.385 227.374 229.584 229.839 229.889C 232.3 230.194 232.921 227.393 232.921 227.393L 233.019 215.944C 233.019 215.944 233.261 215.346 233.511 215.346C 233.757 215.346 233.823 215.92 233.823 215.92L 236.042 230.87C 236.042 230.87 236.683 232.971 238.8 232.288C 240.917 231.608 240.491 229.096 240.491 229.096L 239.288 218.381C 239.288 218.381 238.62 216.42 239.581 215.932C 240.542 215.448 240.757 217.596 240.757 217.596L 243.987 227.506C 243.987 227.506 245.136 230.147 247.319 229.252C 249.503 228.358 248.64 225.413 248.64 225.413C 248.64 225.413 244.23 211.268 243.499 209.862C 242.769 208.452 242.03 205.159 242.03 205.159C 242.37 202.788 245.358 206.432 245.358 206.432C 245.358 206.432 250.073 210.245 251.433 211.331C 252.413 212.112 255.151 211.381 255.151 211.381C 257.394 210.264 255.96 208.331 255.96 208.331" style="stroke:none; fill-rule:evenodd; fill:#000000"/>
    <path d="M 146.241 170.221L 155.878 170.221C 158.565 169.495 161.386 169.096 164.304 169.096C 167.218 169.096 170.03 169.498 172.718 170.221L 187.601 170.221C 181.101 165.366 173.046 162.471 164.304 162.471C 157.757 162.471 151.593 164.092 146.175 166.944L 144.964 170.248L 146.21 170.276L 146.241 170.221zM 151.245 171.854L 148.765 171.854L 149.265 172.803C 149.909 172.463 150.573 172.151 151.245 171.854zM 195.12 191.569L 198.542 182.795C 196.261 178.62 193.226 174.924 189.64 171.854L 177.358 171.854C 185.757 175.565 192.288 182.737 195.12 191.569zM 201.237 188.959L 196.647 200.721C 196.651 200.967 196.667 201.213 196.667 201.459C 196.667 219.334 182.179 233.827 164.304 233.827C 149.335 233.827 136.745 223.663 133.046 209.866L 128.237 216.291C 134.073 230.471 148.019 240.459 164.304 240.459C 185.839 240.459 203.3 223.002 203.3 201.467C 203.3 197.088 202.565 192.885 201.237 188.959zM 131.937 201.459C 131.937 191.045 136.862 181.788 144.503 175.866L 134.905 175.866C 128.933 182.717 125.312 191.666 125.312 201.467C 125.312 204.788 125.73 208.01 126.511 211.088L 132.026 203.721C 131.972 202.971 131.937 202.221 131.937 201.459" style="stroke:none; fill-rule:evenodd; fill:#000000"/>
    <path d="M 29.6204 265.393L 2.62042 265.393" style="stroke:#000000; stroke-width:0.5; fill:none"/>
    <path d="M 38.6204 274.393L 38.6204 301.393" style="stroke:#000000; stroke-width:0.5; fill:none"/>
    <path d="M 29.6204 38.6204L 2.62042 38.6204" style="stroke:#000000; stroke-width:0.5; fill:none"/>
    <path d="M 38.6204 29.6204L 38.6204 2.62042" style="stroke:#000000; stroke-width:0.5; fill:none"/>
    <path d="M 274.394 38.6204L 301.394 38.6204" style="stroke:#000000; stroke-width:0.5; fill:none"/>
    <path d="M 265.394 29.6204L 265.394 2.62042" style="stroke:#000000; stroke-width:0.5; fill:none"/>
    <path d="M 274.394 265.393L 301.394 265.393" style="stroke:#000000; stroke-width:0.5; fill:none"/>
    <path d="M 265.394 274.393L 265.394 301.393" style="stroke:#000000; stroke-width:0.5; fill:none"/>
  </g>
</svg>
